X:1
T:B minor              Jeremiah Ingalls, 1805
T:Anonymous Author, before 1800 669. 6669.
T:Sinful Youth
T:Transcribed from Ingalls' Christian Harmony, 1805.
%%score [ 1 2 3 ]
L:1/8
Q:1/4=140
M:4/4
K:D
V:1 treble nm="Treble" snm="Tr."
V:2 treble-8 nm="Tenor" snm="T."
V:3 bass nm="Bass" snm="B."
V:1
"^1. Remember, sinful youth, you must die, you must die,  Remember, sinful youth, you must die. ____    Remember, sinful youth,\n2. Uncertain are your days,  here  be–low,   here  be–low;   Uncertain are your  days,   here below. _____     Uncertain are your days,\n3. But if you travel down the broad road, the broad road;  But if you  travel   down the broad road. ___     But if you travel down," B4 | %1
 f2 d2 d2 d2 | (d2 c2) f2 F2 | F4 F2 F2 | F2 F2 f2 d2 | d2 d2 f4 | F2 F2 F4- | F4 z4 | F4 F2 F2 | %9
 A2 A2 d4 | %10
"^1.  Who hate the way of truth,  And in your  pleasure boast,  you must die,  you must die, And  in  your pleasure boast, you must die.\n2.  For God has ma–ny  ways    To bring you to your  graves,  here be–low,    here  be–low,   To bring you to your graves,  here be– low.\n3.  In darkness you are bound,    E – ter – nal – ly   a – round  the broad road, the broad road,  E–ter–nal–ly  a – round,   the broad road.\n" c4 e2 e2 | %11
 fe d2 c4 | c4 f2 d2 | e2 g2 f4 | F2 F2 F4 | F2 F2 F2 F2 | f2 d2 e2 g2 | f4 [Fd]2 [Fc]2 | [FB]8 |] %19
V:2
"^4. The God who built the sky, great  I   am,  great I  am;  The God who built the sky, great  I  am, _____  The God who built the sky,\n5. \nTo     a  dreadful  judgment day,  you are bound, you are bound;  To  a  dreadful  judgment day, you are bound.\n _____  To a dreadful judgment day,\n6. But O my friends, don't you,  I  en–treat, I  en–treat;   But O my friends, don't you, I  en–treat; ____  But  O  my  friends,  don’t  you," B4 | %1
 d2 B2 B2 B2 | (B2 ^A2) A2 F2 | A4 A2 F2 | A2 A2 d2 B2 | B2 B2 (B2 ^A2) | F2 ^A2 B4- | B4 z4 | %8
 A4 B2 B2 | d2 e2 f4 | %10
"^4. Has said and can–not   lie,    Im–pe–ni–tents  must  die,  and be damned, and be damned,  Im–pe–ni–tents must die, and be damned.\n5. let thoughts be what they may. Nor can you  it de – lay,  you are bound,   you are bound.   Nor  can you  it  de –  lay,   you  are  bound.\n6. In  carnal  mirth  pur– sue,   Your  no–ble  souls  un   –  do,     I  en– treat,      I    en – treat,    Your  no –ble  souls  un – do,  I   en –  treat.\n" ^A4 B2 B2 | %11
 d2 f2 e4 | f4 d2 B2 | B2 B2 (B2 ^A2) | A2 F2 A4 | A2 F2 A2 A2 | d2 B2 B2 B2 | (B2 ^A2) F2 A2 | %18
 B8 |] %19
V:3
"^7. Now to your  Savior fly, ’scape for life, ’scape for life;  Now to your Savior fly,  ’scape for  life. ___        Now to your Savior fly," B,,4 | %1
 B,,2 B,,2 B,,2 B,,2 | F,4 D,2 D,2 | D,4 D,2 D,2 | D,2 D,2 B,,2 B,,2 | B,,2 B,,2 F,4 | %6
 F,2 F,2 B,,4- | B,,4 z4 | D,4 D,2 D,2 | D,2 D,2 D,4 | %10
"^7. Lest  death  e–ter –nal   be    Your  aw – ful  des– ti– ny,     ’scape for life, ’scape for life,  Your  awful  des –ti –  ny,    ’scape  for    life." F,4 E,2 E,2 | %11
 D,2 D,2 A,4 | F,4 B,2 B,2 | E,2 E,2 F,4 | D,2 D,2 D,4 | D,2 D,2 D,2 F,2 | B,2 B,2 E,2 E,2 | %17
 F,4 F,2 F,2 | B,,8 |] %19

